src/svg/image.svg

<svg height="1000" width="1000.0" xmlns="http://www.w3.org/2000/svg">
    <path d="m906.3 875h-812.5c-51.8 0-93.8-42-93.8-93.7v-562.5c0-51.8 42-93.8 93.8-93.8h812.5c51.7 0 93.7 42 93.7 93.8v562.5c0 51.7-42 93.7-93.7 93.7z m-687.5-640.6c-60.5 0-109.4 48.9-109.4 109.4s48.9 109.3 109.4 109.3 109.3-48.9 109.3-109.3-48.9-109.4-109.3-109.4z m-93.8 515.6h750v-218.7l-170.9-171c-9.2-9.1-24-9.1-33.2 0l-264.7 264.7-108.4-108.4c-9.1-9.2-24-9.2-33.1 0l-139.7 139.7v93.7z" />
  </svg>

<svg height="1000" width="1000" xmlns="http://www.w3.org/2000/svg"><path d="M906.3 875H93.8C42 875 0 833 0 781.3V218.8C0 167 42 125 93.8 125h812.5c51.7 0 93.7 42 93.7 93.8v562.5c0 51.7 -42 93.7 -93.7 93.7zM218.8 234.4c-60.5 0 -109.4 48.9 -109.4 109.4s48.9 109.3 109.4 109.3S328.1 404.2 328.1 343.8 279.2 234.4 218.8 234.4zM125 750h750V531.3l-170.9 -171c-9.2 -9.1 -24 -9.1 -33.2 0L406.3 625 297.8 516.6c-9.1 -9.2 -24 -9.2 -33.1 0L125 656.3V750z"/></svg>
